X: 24707
T: MacPhibín's
R: jig
M: 6/8
K: Aminor
eAA ABc|BAB GBd|eAA ABc|dBG GAB|
eAA ABc|BAB GBd|edB cBG|ABA A3:|
E2A ABc|B2G GAB|c2A ABc|dBG GAB|
E2A ABc|B2G GAB|edB cBG|ABA A3:|
AAA eA d2-|BcB G|AAA gA^f2-|ded B|
AAA eA d2-|BcB G|edB cBG|ABA A3:|

